icon-themes/sifr_svg/cmd/sc_chainframes.svg

<svg viewBox="0 0 16 16" xmlns="http://www.w3.org/2000/svg"><path d="m6 0c-1.108 0-2 .892-2 2v5c0 1.108.892 2 2 2h1v1h-1c-1.108 0-2.0087326.892034-2 2v4h2v-4h1v2h2v-2h1v4h2v-4c0-1.108-.892-2-2-2h-1v-1h1c1.108 0 2-.892 2-2v-5c0-1.108-.892-2-2-2zm0 2h4v5h-1v-2h-2v2h-1z" fill="#555753"/></svg>

<svg xmlns="http://www.w3.org/2000/svg" viewBox="0 0 16 16">
  <path
     style="fill:#555753"
     d="M 6,0 C 4.892,0 4,0.892 4,2 v 5 c 0,1.108 0.892,2 2,2 h 1 v 1 H 6 c -1.108,0 -2.0087326,0.892034 -2,2 v 4 h 2 v -4 h 1 v 2 h 2 v -2 h 1 v 4 h 2 v -4 c 0,-1.108 -0.892,-2 -2,-2 H 9 V 9 h 1 c 1.108,0 2,-0.892 2,-2 V 2 C 12,0.892 11.108,0 10,0 Z m 0,2 h 4 V 7 H 9 V 5 H 7 V 7 H 6 Z"
     />
</svg>
